X: 37
T:Minuett. TBe.037
M:3/4
L:1/8
Q:160
S:Thomas Bennet MS,1718, VWML
R:minuet
O:England
H:1718
Z:C. Graeb
K:C major
gfgagf | edefef | g2 ag""fe | ""d4G2 |! 
gfgagf | edefef | g2 (ag)""fe | d6 ||!
dcdede | fefgfg  | a2 (ba) ""gf |  ""e4d2 |! 
gfgagf | edefge | a2  ""d4 | c6 ||
